X:10
T:Vals "Fahlstedts tröger"
S:efter Anders Peter Roos
O:Hägerstad, Östergötland 
R:Vals
B:Ög 17
B:http://www.smus.se/earkiv/fmk/browselarge.php?lang=sw&katalogid=%C3%96g+17&bildnr=00012
M:3/8
L:1/16
K:D
A2 | A2dFAd | f2dAFd | dcecec | cdfdfd | A2dFAd | f2dAFd | dcEcEc | d4 ::
FA | GCEGBA | FDFAd2 | cAcege | dcdef2 | GCEGBA | FDFAd2 | cAcege | d2 z2 ::
A2 | f6 | cdedcB | A6 | F3ABA | A6 | E3ABA | A6 | FABcde | 
f6 | cdedcB | A6 | F3ABA | A3GEC | A,CEGAc | d3dd2| d4 :|]

